X:71
T:Hasberry Howard
O:scotland
R:Hornpipe
M:4/4
C:J. Scott Skinner
K:G
(3def|\
g>d B>G D/E/F/G/ (3ABc|\
B>G D>B, G,/A,/B,/C/ (3DE=F|
|1 E>C B,>C A,>A B>A|F>G E>F D>d e>f :|2\
E>C B,>C A,>A D>F|G2G,2 G,2::
d>c|\
B>d g>f g>d B>c|d>b a>f {f}g2 d>B|\
c>A a>g f>d e>f|g>f g>a b2d>c|
B>d g>f g>d B>c|d>b a>f {f}g2 d>B|\
c>A a>g f>d e>f|a2g2 g2:|
